X: 3433
T: Caroline och Eriks bröllopsvals 
R: vals
C: Magnus Samuelsson 
C: Arr. K. Pettersson, 2007 
Z: .andersson 
M: 3/4
L: 1/4
K: D 

V: 1
A |: d>ef | d2A | B>c ((3d/c/B/) | A2A | (E/D/) E/F/ G/A/ | B>cB | A3 | A2A :| 
g>(fe/d/) | B2B | g>(fe/g/) | fd/c/B | (G/F/) (G/A/) B/c/ | d>c ((3B/c/d/) | e3 | e2e | 
g>(fe/d/) | B2B | g>(fe/g/) | fd/c/B | (G/F/) (G/A/) B/c/ | d>cB | A2E/F/ | GFE | D3 |] 

(:musicend:)

(:music:)

